tools/download-figma-icons/icons/outlined-medium/socket.svg

<svg width="24" height="24" viewBox="0 0 24 24" fill="none" xmlns="http://www.w3.org/2000/svg">
<path fill-rule="evenodd" clip-rule="evenodd" d="M12 0C5.3835 0 0 5.3835 0 12C0 17.3835 3.618 22.152 8.79825 23.5972C9.192 23.709 9.6105 23.4765 9.72225 23.0767C9.83325 22.677 9.60075 22.2645 9.20175 22.1528C4.66725 20.8883 1.5 16.7122 1.5 12C1.5 6.4635 5.81025 1.92525 11.25 1.53825V3.75C11.25 4.16475 11.5852 4.5 12 4.5C12.4148 4.5 12.75 4.16475 12.75 3.75V1.53825C18.1898 1.92525 22.5 6.4635 22.5 12C22.5 17.5365 18.1898 22.0747 12.75 22.4618V20.25C12.75 19.8353 12.4148 19.5 12 19.5C11.5852 19.5 11.25 19.8353 11.25 20.25V23.25C11.25 23.6647 11.5852 24 12 24C18.6165 24 24 18.6165 24 12C24 5.3835 18.6165 0 12 0ZM15 12C15 11.1728 15.6728 10.5 16.5 10.5C17.3272 10.5 18 11.1728 18 12C18 12.8272 17.3272 13.5 16.5 13.5C15.6728 13.5 15 12.8272 15 12ZM19.5 12C19.5 10.3455 18.1545 9 16.5 9C14.8455 9 13.5 10.3455 13.5 12C13.5 13.6545 14.8455 15 16.5 15C18.1545 15 19.5 13.6545 19.5 12ZM7.5 13.5C8.32725 13.5 9 12.8272 9 12C9 11.1728 8.32725 10.5 7.5 10.5C6.67275 10.5 6 11.1728 6 12C6 12.8272 6.67275 13.5 7.5 13.5ZM7.5 15C5.8455 15 4.5 13.6545 4.5 12C4.5 10.3455 5.8455 9 7.5 9C9.1545 9 10.5 10.3455 10.5 12C10.5 13.6545 9.1545 15 7.5 15Z" fill="black"/>
</svg>

<svg width="24" height="24" viewBox="0 0 24 24" fill="none" xmlns="http://www.w3.org/2000/svg"><path fill-rule="evenodd" clip-rule="evenodd" d="M12 0C5.383 0 0 5.383 0 12c0 5.384 3.618 10.152 8.798 11.597a.75.75 0 1 0 .404-1.444C4.667 20.888 1.5 16.713 1.5 12c0-5.537 4.31-10.075 9.75-10.462V3.75a.75.75 0 1 0 1.5 0V1.538C18.19 1.925 22.5 6.463 22.5 12s-4.31 10.075-9.75 10.462V20.25a.75.75 0 1 0-1.5 0v3c0 .415.335.75.75.75 6.616 0 12-5.384 12-12 0-6.617-5.384-12-12-12Zm3 12c0-.827.673-1.5 1.5-1.5s1.5.673 1.5 1.5-.673 1.5-1.5 1.5S15 12.827 15 12Zm4.5 0c0-1.655-1.346-3-3-3-1.655 0-3 1.345-3 3s1.345 3 3 3c1.654 0 3-1.345 3-3Zm-12 1.5c.827 0 1.5-.673 1.5-1.5s-.673-1.5-1.5-1.5S6 11.173 6 12s.673 1.5 1.5 1.5Zm0 1.5c-1.654 0-3-1.345-3-3s1.346-3 3-3c1.655 0 3 1.345 3 3s-1.345 3-3 3Z" fill="currentColor"/></svg>
